X:572
T: ES REGNET AUF DER BRUECKE
N: E1877A
O: Europa, Mitteleuropa, Deutschland, Niederrhein
R: Kinder - Lied, Tanz, Ringelreihen
M: 2/4
L: 1/16
K: F
C2 | F2G2A2B2 | c4d2
B2 | A4G4 | F4z2
C2 | F2G2A2B2 | c4d2
B2 | A4G4 | F4z4 |
c3BA2c2 | B2A2G4 |
c3BA2c2 | B4A4 | G4z4 |
F2G2A2B2 | c4d2
B2 | A4G4 | F4z2

@@@ Tune index: 5256
